X:2
T:Bravade
A:Nederland
M:C
C:van Eijck
S:Der Fluyten Lusthof
K:DDor
A2|: d2f2e2d2| ^c2A2A3e| a3ea3g| f2d2d2A2| \
|d2f2e2d2| ^c3de2A2| B^cd2 d2^c2|1 d6 A2 :|2 d8
|: ^cde2 cde2| a2 e2 e3 d| ^c>de2 c>de2| a2 e2 e4| \
a3a g3g|  f3f e2fg|  a2gf ede2 |1  d8:|2d6||
